dist/img/meet-us/quotes.svg

<svg width="96" height="86" viewBox="0 0 96 86" fill="none" xmlns="http://www.w3.org/2000/svg">
<path d="M17.5524 7.62939e-06C6.44764 7.62939e-06 0 5.43869 0 15.5905C0 24.6548 5.73141 30.8185 15.0448 30.8185C20.4178 30.8185 24.3581 29.0057 26.5076 25.3801C28.6568 28.2807 30.0895 32.9941 30.0895 40.2455C30.0895 55.836 25.0746 69.9764 12.5374 83.029C11.1045 84.4792 13.612 87.0172 15.4029 85.567C31.5222 69.6138 41.5524 53.2979 41.5524 32.6315C41.5524 11.2396 32.5971 7.62939e-06 17.5524 7.62939e-06ZM72 7.62939e-06C60.8956 7.62939e-06 54.4476 5.43869 54.4476 15.5905C54.4476 24.6548 60.1791 30.8185 69.4925 30.8185C74.8657 30.8185 78.806 29.0057 80.9552 25.3801C83.1045 28.2807 84.5373 32.9941 84.5373 40.2455C84.5373 55.836 79.5224 69.9764 66.9851 83.029C65.5524 84.4792 68.0597 87.0172 69.8507 85.567C85.9701 69.6138 96 53.2979 96 32.6315C96 11.2399 87.0448 7.62939e-06 72 7.62939e-06Z" fill="#F9ECE4"/>
</svg>

<svg width="96" height="86" viewBox="0 0 96 86" xmlns="http://www.w3.org/2000/svg"><path d="M17.552 0C6.448 0 0 5.439 0 15.59c0 9.065 5.731 15.23 15.045 15.23 5.373 0 9.313-1.813 11.463-5.439 2.149 2.9 3.582 7.614 3.582 14.866 0 15.59-5.015 29.73-17.553 42.783-1.433 1.45 1.075 3.988 2.866 2.538 16.12-15.953 26.15-32.27 26.15-52.935C41.552 11.24 32.596 0 17.552 0zM72 0C60.896 0 54.448 5.439 54.448 15.59c0 9.065 5.731 15.229 15.045 15.229 5.373 0 9.313-1.813 11.462-5.439 2.15 2.9 3.582 7.614 3.582 14.866 0 15.59-5.015 29.73-17.552 42.783-1.433 1.45 1.075 3.988 2.866 2.538C85.97 69.614 96 53.297 96 32.632 96 11.24 87.045 0 72 0z"/></svg>
